packages/match-logos/mono/svg/qvc.svg

<svg fill="none" height="48" viewBox="0 0 129 48" width="129" xmlns="http://www.w3.org/2000/svg" xmlns:xlink="http://www.w3.org/1999/xlink"><clipPath id="a"><path d="m0 0h128.372v48h-128.372z"/></clipPath><g clip-path="url(#a)" clip-rule="evenodd" fill="#1f304c" fill-rule="evenodd"><path d="m69.2291 36.6475c-6.1227 0-12.1864-4.8592-12.1864-12.3014 0-7.8653 6.3115-12.3773 12.2043-12.3773 6.5604 0 12.4309 5.1281 12.4309 12.3069 0 5.1238-3.0218 8.1199-3.0218 8.1199 1.2692 1.4299 2.4112 2.1912 4.233 2.1912.1484 0 .2511.1061.2511.2512v2.083c0 .1518-.1094.2266-.2266.2266-5.5211 0-5.8917-4.281-9.0787-5.2253-.3672-.0804-.4912-.4064-.0569-.6464 0 0 .787-.5269 1.7068-.5269.3929 0 .9399.115.9399.115s2.6991-2.4714 2.6991-6.6072c0-5.2387-4.5454-9.7574-9.6625-9.7574-5.8526 0-9.879 4.8435-9.879 9.7094 0 5.8828 4.9551 9.8634 9.8054 9.8634.8952 0 1.5895-.2177 2.2906-.2177.9577 0 1.7201.7189 2.2627 1.4903.183.2936-.0514.4532-.5493.5972 0 0-1.5493.7044-4.1614.7044z"/><path d="m2.10977 45.4143h43.30603v-43.30489h-43.30603zm-1.738049-45.41466068c-.204279-.00111069-.37060472.16521468-.371721.36949368v.002233 46.782134c0 .2054.166326.3717.371721.3717h46.780979c.2054.0011.3718-.1641.3718-.3695v-.0022-46.78325c0-.204279-.1652-.37061068-.3706-.37061068h-.0012z"/><path d="m23.7841 35.4262c-6.4733 0-11.9665-5.356-11.9665-11.9666 0-6.0937 4.8391-11.9218 12.0123-11.9218 6.3427 0 11.8817 5.1125 11.8817 11.9509 0 4.7821-2.8544 7.6911-2.8544 7.6911.9355 1.0192 1.9089 1.9513 3.6871 1.9513.173 0 .3092.0815.3092.3103v2.2348c0 .2121-.1362.3081-.3092.3081-2.8722 0-4.5979-1.5751-6.1641-3.4716-.778-.8082-1.8675-1.7068-2.7427-1.9055-.4856-.1116-.5369-.3762-.2601-.633.5169-.5402 1.1989-.8126 2.0573-.8126l1.1353.1998c.9711-1.1129 2.237-3.1077 2.237-5.866 0-4.8547-3.8612-9.0452-9.0262-9.0452-4.9161 0-9.0653 3.9672-9.0653 9.0496 0 4.4261 3.581 9.033 9.2439 9.033.3717.0022 1.0247-.0938 1.3875-.0938 1.152 0 1.939.5659 2.7371 1.651.1775.2132.2244.4677-.2388.6117-.844.2936-2.4302.7245-4.0611.7245z"/><path d="m119.626 36.6373c-6.71 0-12.352-5.2253-12.352-12.461 0-6.8729 5.584-12.2266 12.277-12.2266 4.967 0 8.048 2.9302 8.048 2.9302.279.2668.396.451.09.7714l-1.145 1.1442c-.273.2735-.456.2165-.637.0323 0 0-2.404-2.3196-6.356-2.3196-5.181 0-9.702 4.4339-9.702 9.7541 0 5.664 4.727 9.7652 9.763 9.7652 2.825 0 4.443-1.0103 6.074-2.1076.314-.2143.463-.2712.667-.0457l1.154 1.2748c.236.2466.217.4911-.026.6608-1.631 1.2268-4.343 2.8264-7.855 2.8264zm-25.4165-.365c.1886.4097.3572.3059.5224-.0033l11.1541-23.7567c.094-.1987-.023-.2958-.146-.2958h-2.481c-.167 0-.225.1228-.378.4588l-8.4148 17.9375-8.4771-18.0346c-.1239-.2847-.1875-.3617-.3426-.3617h-2.4302c-.2422 0-.2835.1239-.1942.2813z"/></g></svg>

<svg width="129" height="48" viewBox="0 0 129 48" fill="none" xmlns="http://www.w3.org/2000/svg">
<g clip-path="url(#clip0)">
<path fill-rule="evenodd" clip-rule="evenodd" d="M69.2291 36.6475C63.1064 36.6475 57.0427 31.7883 57.0427 24.3461C57.0427 16.4808 63.3542 11.9688 69.247 11.9688C75.8074 11.9688 81.6779 17.0969 81.6779 24.2757C81.6779 29.3995 78.6561 32.3956 78.6561 32.3956C79.9253 33.8255 81.0673 34.5868 82.8891 34.5868C83.0375 34.5868 83.1402 34.6929 83.1402 34.838V36.921C83.1402 37.0728 83.0308 37.1476 82.9136 37.1476C77.3925 37.1476 77.0219 32.8666 73.8349 31.9223C73.4677 31.8419 73.3437 31.5159 73.778 31.2759C73.778 31.2759 74.565 30.749 75.4848 30.749C75.8777 30.749 76.4247 30.864 76.4247 30.864C76.4247 30.864 79.1238 28.3926 79.1238 24.2568C79.1238 19.0181 74.5784 14.4994 69.4613 14.4994C63.6087 14.4994 59.5823 19.3429 59.5823 24.2088C59.5823 30.0916 64.5374 34.0722 69.3877 34.0722C70.2829 34.0722 70.9772 33.8545 71.6783 33.8545C72.636 33.8545 73.3984 34.5734 73.941 35.3448C74.124 35.6384 73.8896 35.798 73.3917 35.942C73.3917 35.942 71.8424 36.6464 69.2303 36.6464L69.2291 36.6475Z" fill="#1F304C"/>
<mask id="mask0" mask-type="alpha" maskUnits="userSpaceOnUse" x="0" y="-1" width="128" height="49">
<path d="M0 47.5252H127.87V-0.000366211H0V47.5252Z" fill="white"/>
</mask>
<g mask="url(#mask0)">
<path fill-rule="evenodd" clip-rule="evenodd" d="M2.10977 45.4143H45.4158V2.10941H2.10977V45.4143ZM0.371721 -0.00036068C0.167442 -0.00147137 0.00111628 0.164854 0 0.369133V0.371366V47.1535C0 47.3589 0.166326 47.5252 0.371721 47.5252H47.1527C47.3581 47.5263 47.5245 47.3611 47.5245 47.1557V47.1535V0.37025C47.5245 0.165971 47.3593 -0.00036068 47.1539 -0.00036068H47.1527H0.371721Z" fill="#1F304C"/>
<path fill-rule="evenodd" clip-rule="evenodd" d="M23.7841 35.4262C17.3108 35.4262 11.8176 30.0702 11.8176 23.4596C11.8176 17.3659 16.6567 11.5378 23.8299 11.5378C30.1726 11.5378 35.7116 16.6503 35.7116 23.4887C35.7116 28.2708 32.8572 31.1798 32.8572 31.1798C33.7927 32.199 34.7661 33.1311 36.5443 33.1311C36.7173 33.1311 36.8535 33.2126 36.8535 33.4414V35.6762C36.8535 35.8883 36.7173 35.9843 36.5443 35.9843C33.6721 35.9843 31.9464 34.4092 30.3802 32.5127C29.6022 31.7045 28.5127 30.8059 27.6375 30.6072C27.1519 30.4956 27.1006 30.231 27.3774 29.9742C27.8943 29.434 28.5763 29.1616 29.4347 29.1616L30.57 29.3614C31.5411 28.2485 32.807 26.2537 32.807 23.4954C32.807 18.6407 28.9458 14.4502 23.7808 14.4502C18.8647 14.4502 14.7155 18.4174 14.7155 23.4998C14.7155 27.9259 18.2965 32.5328 23.9594 32.5328C24.3311 32.535 24.9841 32.439 25.3469 32.439C26.4989 32.439 27.2859 33.0049 28.084 34.09C28.2615 34.3032 28.3084 34.5577 27.8452 34.7017C27.0012 34.9953 25.415 35.4262 23.7841 35.4262Z" fill="#1F304C"/>
<path fill-rule="evenodd" clip-rule="evenodd" d="M119.626 36.6373C112.916 36.6373 107.274 31.412 107.274 24.1763C107.274 17.3034 112.858 11.9497 119.551 11.9497C124.518 11.9497 127.599 14.8799 127.599 14.8799C127.878 15.1467 127.995 15.3309 127.689 15.6513L126.544 16.7955C126.271 17.069 126.088 17.012 125.907 16.8278C125.907 16.8278 123.503 14.5082 119.551 14.5082C114.37 14.5082 109.849 18.9421 109.849 24.2623C109.849 29.9263 114.576 34.0275 119.612 34.0275C122.437 34.0275 124.055 33.0172 125.686 31.9199C126 31.7056 126.149 31.6487 126.353 31.8742L127.507 33.149C127.743 33.3956 127.724 33.6401 127.481 33.8098C125.85 35.0366 123.138 36.6362 119.626 36.6362V36.6373ZM94.2095 36.2723C94.3981 36.682 94.5667 36.5782 94.7319 36.269L105.886 12.5123C105.98 12.3136 105.863 12.2165 105.74 12.2165H103.259C103.092 12.2165 103.034 12.3393 102.881 12.6753L94.4662 30.6128L85.9891 12.5782C85.8652 12.2935 85.8016 12.2165 85.6465 12.2165H83.2163C82.9741 12.2165 82.9328 12.3404 83.0221 12.4978L94.2095 36.2723Z" fill="#1F304C"/>
</g>
</g>
<defs>
<clipPath id="clip0">
<rect width="128.372" height="48" fill="white"/>
</clipPath>
</defs>
</svg>
